!!!SOCIAL_FUNCTION:	begging dance songs
!!!PDT:	1913
!!!OTL: No_114_Song_of_the_Dogs.krn
!!!REG: Great_Lakes
!!!LANG: Non-Tone
!!!LING_GROUP: Algonquin
**kern	**kern
*staff2	*staff1
*clefF4	*clefF4
*k[b-]	*k[b-]
*M2/4	*M2/4
4r	4d\
=1	=1
8GG/L	2d\
8GG/J	.
8GG/L	.
8GG/J	.
=2	=2
8GG/L	4d\
8GG/J	.
8GG/L	(12c\L
.	12A\)
8GG/J	.
.	12A\J
=3||	=3||
*M3/4	*M3/4
2.r	2A\
.	8.d\L
.	16A\Jk
=4||	=4||
*M2/4	*M2/4
2r	2A\
=5	=5
2r	(12A\L
.	12G\)
.	12G\J
.	4F\
=6	=6
2r	8.D\L
.	16D\Jk
.	8.G\L
.	16F\Jk
=7||	=7||
*M3/4	*M3/4
2.r	2F\
.	8G\L
.	8F\J
=8	=8
2.r	8.D\L
.	16D\Jk
.	2D\
=9	=9
2.r	[2D\
.	8.D\L]
.	16A\Jk
=10||	=10||
*M2/4	*M2/4
2r	8.A\L
.	16A\Jk
.	4A\
=11	=11
2r	8.A\L
.	16d\Jk
.	8G\L
.	8G\J
=12	=12
2r	(12G\L
.	12F\)
.	12D\J
.	[4D\
=13	=13
2r	8.D\L]
.	16G\Jk
.	8.G\L
.	16F\Jk
=14||	=14||
*M3/4	*M3/4
2.r	2F\
.	8G\L
.	8F\J
=15	=15
2.r	8.D\L
.	16D\Jk
.	2D\
=16	=16
2.r	2D\
.	4r
==	==
*-	*-
